X: 1
T:The Maid of Argyle's -- Reel
M:2/4
L:1/16
R:reel
B:Ryan's Mammoth Collection
N:265
Z:Contributed by Ray Davies,  ray:davies99.freeserve.co.uk
K:G
v.g2(dc) .B2(AG) | FGAB cAAf | gd"4"ec .B2(AG) | DFAc (BG).G2 |
 .g2(dc) .B2(AG) | FGAB cAAf | gd"4"ec .B2(AG) | DFAc (BG).G2 :|
|:(DG)(BG) (AG)(BG) | (DG)(BG) cAAc | Bdef gedc | BdAc BGGB |
  (DG)(BG) (AG)(BG) | (DG)(BG) cAAc | Bdef gedc | BdAc (BG).G2 :|
